X:1
T:’Tis the Old, Old Story of His Love
T:’Tis the Old, Old Story of His Love
T:Ira Bishop Wilson
T:James Rowe, 1905
T:Public Domain Courtesy of the Cyber Hymnal™
T:Public Domain Courtesy of the Cyber Hymnal™
C:Ira Bishop Wilson
Z:Public Domain
Z:Courtesy of the Cyber Hymnal™
%%score ( 1 2 ) ( 3 4 )
L:1/8
Q:1/4=95
M:4/4
K:Ab
V:1 treble 
V:2 treble 
V:3 bass 
V:4 bass 
V:1
"^Duet, Alto &  Tenor" E>D | C2 C2 C<C CC | D2 D2 C2 CD | E2 E2 F3 E | E2 D4 ED x2 | C2 C2 CCCC | %6
w: 1.~There’s a|sweet old sto- ry which I|love to hear, When the|night is long and|drea- ry; When I|feel the pow- er of the|
w: 2.~There’s a|sweet old sto- ry that I|love to read When my|spir- it dreads the|mor- row, When, to|help me on- ward, strength or|
w: 3.~There’s a|sweet old sto- ry that I|love to tell, To the|heart by grief o’er-|tak- en, To the|friend- less bro- thers who in|
 D2 F2 !fermata!F2 F_F | E2 C2 E3 D x | D2 C4 ||"^Refrain" [CA]>[DB] | %10
w: tempt- er near, And my|soul is sad and|wea- ry.||
w: cheer I need, Or when|com- fort I would|bor- row.|’Tis the|
w: dark- ness dwell, And to|those by hope for-|sa- ken.||
 [Ec]2 [Ec]2 [DB]<[CA] E>[CF] | G6 [FB]>[Fc] | [Fd]2 [DF]2 [Ec]<[DB] G>[DF] | E6 [CA][DB] | %14
w: ||||
w: old, old sto- ry of His|love, ’Tis the|sweet, old mes- sage from a-|bove; For no|
w: ||||
 [Ec]<[Ee] [Ec]>[DB] [CA]2 EE | [DF][DF][FB][Fc] !fermata![Fd]2 [F=d]>[Fd] | %16
w: ||
w: oth- er can I find That can|calm a trou- bled mind, Like the|
w: ||
 [Ee]2 [CA]2 [Fd]<[Fd] c>[DB] | !fermata!A6 |] %18
w: ||
w: sweet old sto- ry of His|love.|
w: ||
V:2
 x2 | x8 | x8 | x8 | x10 | x8 | x8 | x9 | x6 || x2 | x8 | (D<DD>D D2) x2 | x8 | (C<CC>C C2) x2 | %14
 x6 EE | x8 | x8 | (C<CE>D C2) |] %18
V:3
 C>B, | [A,,A,]2 E,2 E,<E, A,A, | (F,B,) [A,,E,]2 A,B, x2 | [A,,C]2 C2 C3 z | B,2 B,4 [G,C]B, x2 | %5
w: ~ ~|~ ~ ~ ~ ~ ~|~ * ~ ~ ~|~ ~ ~|~ ~ ~ ~|
 [A,,A,]2 E,2 E,E,A,G, | [D,,F,]2 A,2 !fermata![D,,A,]2 A,B, | [E,,C]2 E,2 C3 z B, | %8
w: ~ ~ ~ ~ ~ ~|~ ~ ~ ~ ~|~ ~ ~ ~|
 [E,,B,]2 [A,,A,]4 || [A,,E,]>[A,,E,] | [A,,A,]2 [A,,A,]2 E,<[A,,E,] z3/2 [A,,E,]/ | %11
w: ~ ~|~ ~|~ ~ ~ ~ ~|
 [B,,E,]<[B,,E,] [B,,E,]>[B,,E,] [E,B,]2 [D,B,]>[C,=A,] | %12
w: ~ The sto- ry of His love,|
 [B,,B,]2 [B,,B,]2 [E,A,]<[E,G,] z3/2 [E,G,]/ | [A,,A,]<[A,,A,] [C,A,]>[E,A,] A,2 A,A, | %14
w: ~ ~ ~ ~ ~|~ The mes- sage, from a- bove,|
 A,<[A,C] A,>[E,G,] [F,A,]2 [C,A,][C,A,] | [D,A,][D,A,][D,A,][C,=A,] [B,,B,]2 [=B,,A,]>[B,,A,] | %16
w: ~ ~ ~ ~ ~ ~ ~|~ ~ ~ ~ ~ ~ ~|
 [C,A,]2 [F,A,]2 [B,,B,]<[B,,B,] z3/2 [E,G,]/ | %17
w: ~ ~ ~ ~ ~|
 [A,,A,]<[A,,A,] [A,,G,]>[A,,F,] !fermata![A,,E,]2 |] %18
w: ~ The sto- ry of|
V:4
 x2 | x4 A,,2 x2 | D,,2 (A,F,) x4 | x4 A,,2 A, x | E,,6 (G,2 F,2) | x4 A,,2 x2 | x8 | x4 E,,2 x3 | %8
 x6 || x2 | x8 | x8 | x8 | x4 A,2 A,A, | A,/ x A,3/2 x5 | x8 | x8 | x6 |] %18

